sabine/images/stresslevel.svg

<?xml version="1.0" encoding="UTF-8" standalone="no"?>
<svg
   xmlns:dc="http://purl.org/dc/elements/1.1/"
   xmlns:cc="http://creativecommons.org/ns#"
   xmlns:rdf="http://www.w3.org/1999/02/22-rdf-syntax-ns#"
   xmlns:svg="http://www.w3.org/2000/svg"
   xmlns="http://www.w3.org/2000/svg"
   id="svg3532"
   version="1.1"
   viewBox="0 0 100 100"
   height="100pt"
   width="100pt">
  <defs
     id="defs3543" />
  <path
     id="path3547"
     d="m 19.607813,16.017439 -8.425752,14.567993 -1.110729,21.254953 9.087049,17.659494 3.734622,13.482966 -0.369203,13.439092 41.223662,0.105932 -0.06205,-10.954357 11.137403,0.01817 9.353435,-8.900889 0.749056,-14.681454 9.737704,-5.992431 L 84.775495,38.189431 80.730607,23.208355 69.944229,11.373305 53.015613,5.6804959 29.115473,8.0849967 Z"
     style="fill:#ffe0bd" />
  <g
     transform="matrix(0.93818673,0,0,0.93818673,3.8428916,3.484733)"
     id="#000000ff">
    <path
       style="opacity:1;fill:#000000"
       id="path3535"
       d="m 43.72,0 4.69,0 c 8.7,0.44 17.66,2.43 24.73,7.77 8.04,5.93 12.62,15.54 14.13,25.24 0.8,5.49 4.63,9.78 7.11,14.56 1.73,3.14 4.84,6.85 2.69,10.54 -2.26,2.84 -6.01,3.82 -9.08,5.51 -0.03,6.92 1.04,14.87 -4.03,20.45 -4.27,5.36 -11.55,6.4 -17.96,5.49 0,3.48 0,6.96 0,10.44 l -4,0 c -0.01,-4.94 -0.01,-9.88 0.03,-14.82 6.08,0.38 13.47,2.16 18.2,-2.91 5.64,-5.51 3.29,-14.03 3.77,-21.03 3.48,-1.85 7.39,-3.1 10.23,-5.95 C 90.97,49.43 87.14,43.85 84.28,37.79 82.84,31.1 81.65,24.11 77.66,18.35 72.95,10.95 64.77,6.29 56.22,4.91 46.47,3.23 36.01,3.68 26.95,7.94 19.44,11.45 13.7,18.14 10.83,25.86 6.55,37.37 6.86,51 13.48,61.58 c 2.78,4.34 5.49,8.81 6.87,13.83 2.51,7.96 1.42,16.39 1.65,24.59 l -4,0 C 17.73,91.93 18.95,83.6 16.29,75.8 14.03,68.05 7.89,62.16 5.85,54.3 1.28,38.67 5.14,19.72 17.99,9.02 25.12,2.98 34.55,0.5 43.72,0 Z" />
    <path
       style="opacity:1;fill:#000000"
       id="path3537"
       d="m 41.76,21.82 c 7.25,-3.03 18.1,0.36 19.09,9.06 1.42,7.2 -4.97,12.04 -9.26,16.7 -2.41,2.2 -2.02,5.7 -2.27,8.65 -0.98,0.01 -2.94,0.05 -3.91,0.06 0.12,-3.29 0.15,-6.9 2.26,-9.63 2.68,-3.33 6.27,-5.91 8.37,-9.71 2.15,-3.97 0.56,-9.47 -3.4,-11.65 -4.15,-2.27 -10.04,-1.62 -13.05,2.22 -1.82,2.25 -2.26,5.19 -2.51,7.98 -0.99,0 -2.97,-0.02 -3.96,-0.02 0.56,-5.48 2.87,-11.84 8.64,-13.66 z" />
    <path
       style="opacity:1;fill:#000000"
       id="path3539"
       d="m 44.75,60.75 c 1.83,0.01 3.67,0.01 5.5,0 0,2.25 0,4.5 0,6.75 -1.83,0 -3.67,0 -5.5,0 0,-2.25 0,-4.5 0,-6.75 z" />
  </g>
</svg>

<?xml version="1.0" encoding="UTF-8" ?>
<!DOCTYPE svg PUBLIC "-//W3C//DTD SVG 1.1//EN" "http://www.w3.org/Graphics/SVG/1.1/DTD/svg11.dtd">
<svg width="100pt" height="100pt" viewBox="0 0 100 100" version="1.1" xmlns="http://www.w3.org/2000/svg">
<g id="#000000ff">
<path fill="#000000" opacity="1.00" d=" M 43.72 0.00 L 48.41 0.00 C 57.11 0.44 66.07 2.43 73.14 7.77 C 81.18 13.70 85.76 23.31 87.27 33.01 C 88.07 38.50 91.90 42.79 94.38 47.57 C 96.11 50.71 99.22 54.42 97.07 58.11 C 94.81 60.95 91.06 61.93 87.99 63.62 C 87.96 70.54 89.03 78.49 83.96 84.07 C 79.69 89.43 72.41 90.47 66.00 89.56 C 66.00 93.04 66.00 96.52 66.00 100.00 L 62.00 100.00 C 61.99 95.06 61.99 90.12 62.03 85.18 C 68.11 85.56 75.50 87.34 80.23 82.27 C 85.87 76.76 83.52 68.24 84.00 61.24 C 87.48 59.39 91.39 58.14 94.23 55.29 C 90.97 49.43 87.14 43.85 84.28 37.79 C 82.84 31.10 81.65 24.11 77.66 18.35 C 72.95 10.95 64.77 6.29 56.22 4.91 C 46.47 3.23 36.01 3.68 26.95 7.94 C 19.44 11.45 13.70 18.14 10.83 25.86 C 6.55 37.37 6.86 51.00 13.48 61.58 C 16.26 65.92 18.97 70.39 20.35 75.41 C 22.86 83.37 21.77 91.80 22.00 100.00 L 18.00 100.00 C 17.73 91.93 18.95 83.60 16.29 75.80 C 14.03 68.05 7.89 62.16 5.85 54.30 C 1.28 38.67 5.14 19.72 17.99 9.02 C 25.12 2.98 34.55 0.50 43.72 0.00 Z" />
<path fill="#000000" opacity="1.00" d=" M 41.76 21.82 C 49.01 18.79 59.86 22.18 60.85 30.88 C 62.27 38.08 55.88 42.92 51.59 47.58 C 49.18 49.78 49.57 53.28 49.32 56.23 C 48.34 56.24 46.38 56.28 45.41 56.29 C 45.53 53.00 45.56 49.39 47.67 46.66 C 50.35 43.33 53.94 40.75 56.04 36.95 C 58.19 32.98 56.60 27.48 52.64 25.30 C 48.49 23.03 42.60 23.68 39.59 27.52 C 37.77 29.77 37.33 32.71 37.08 35.50 C 36.09 35.50 34.11 35.48 33.12 35.48 C 33.68 30.00 35.99 23.64 41.76 21.82 Z" />
<path fill="#000000" opacity="1.00" d=" M 44.75 60.75 C 46.58 60.76 48.42 60.76 50.25 60.75 C 50.25 63.00 50.25 65.25 50.25 67.50 C 48.42 67.50 46.58 67.50 44.75 67.50 C 44.75 65.25 44.75 63.00 44.75 60.75 Z" />
</g>
</svg>
